X: 1
T: Boyne Hunt, The
M: 4/4
L: 1/8
R: reel
K: Dmaj
(3ABA FA DAFA | (3ABA FA BE~E2 | (3ABA FA DAFA |ABde fdd2:|
fa{b}af a3f |gfga be ~e2 |fa{b}af afdB | ABde fdd2 |
fa{b}af a3f |gfga be e2|fgfe dedB |ABde fdd2 |
